X: 3
T: The Fisherman's Island
R: reel
M: 4/4
L: 1/8
K: Dmaj
z | A,DFA d2 cd | BAGB AFDF | (3GFE (3FED CDEF | GBed (3cde Ag |
f2 df e2 ce | dcdc BAGF | EFGB cded | cAGE FDD :|
g | fd d2 AF F2 | DFAd fdef | gece bece | geed c/B/A G/F/E |
DF F2 Ad d2 | Bg g2 edcB | Adfd g2 ed | cAGE FDD :|


Tune 181	Setting 12829

